razor-double-edge.svg

<svg fill="currentColor" viewBox="0 0 24 24"><path d="M20 8c-.55 0-1-.45-1-1s.45-1 1-1V5H4v1c.55 0 1 .45 1 1s-.45 1-1 1H2v7h2c.55 0 1 .45 1 1s-.45 1-1 1v1h16v-1c-.55 0-1-.45-1-1s.45-1 1-1h2V8zm0 4h-1v1h-2v-1h-3.59c-.21.58-.76 1-1.41 1s-1.2-.42-1.41-1H7v1H5v-1H4v-1h1v-1h2v1h3.59c.21-.58.76-1 1.41-1s1.2.42 1.41 1H17v-1h2v1h1z"/></svg>

<svg  viewBox="0 0 24 24" fill="currentColor"><path  d="M20 8C19.45 8 19 7.55 19 7C19 6.45 19.45 6 20 6V5H4V6C4.55 6 5 6.45 5 7C5 7.55 4.55 8 4 8H2V15H4C4.55 15 5 15.45 5 16C5 16.55 4.55 17 4 17V18H20V17C19.45 17 19 16.55 19 16C19 15.45 19.45 15 20 15H22V8H20M20 12H19V13H17V12H13.41C13.2 12.58 12.65 13 12 13S10.8 12.58 10.59 12H7V13H5V12H4V11H5V10H7V11H10.59C10.8 10.42 11.35 10 12 10S13.2 10.42 13.41 11H17V10H19V11H20V12Z"/></svg>
